src/svg/icon-settings.svg

<svg width="20" height="21" viewBox="0 0 20 21" fill="none" xmlns="http://www.w3.org/2000/svg">
<path fill-rule="evenodd" clip-rule="evenodd" d="M14.119 15.5C13.8596 16.226 13.1712 16.75 12.3542 16.75C11.5385 16.75 10.8489 16.226 10.5894 15.5H5.625C5.27982 15.5 5 15.2202 5 14.875C5 14.5298 5.27982 14.25 5.625 14.25H10.5894C10.8489 13.524 11.5385 13 12.3542 13C13.1712 13 13.8596 13.524 14.119 14.25H14.375C14.7202 14.25 15 14.5298 15 14.875C15 15.2202 14.7202 15.5 14.375 15.5H14.119ZM11.4995 14.875C11.4995 15.3452 11.8826 15.7269 12.3545 15.7269C12.8264 15.7269 13.2095 15.3452 13.2095 14.875C13.2095 14.4048 12.8264 14.0231 12.3545 14.0231C11.8826 14.0231 11.4995 14.4048 11.4995 14.875Z" fill="currentColor"/>
<path fill-rule="evenodd" clip-rule="evenodd" d="M14.119 8C13.8596 8.72595 13.1712 9.25 12.3542 9.25C11.5385 9.25 10.8489 8.72595 10.5894 8H5.625C5.27982 8 5 7.72018 5 7.375C5 7.02982 5.27982 6.75 5.625 6.75H10.5894C10.8489 6.02405 11.5385 5.5 12.3542 5.5C13.1712 5.5 13.8596 6.02405 14.119 6.75H14.375C14.7202 6.75 15 7.02982 15 7.375C15 7.72018 14.7202 8 14.375 8H14.119ZM11.4995 7.375C11.4995 7.84515 11.8826 8.22689 12.3545 8.22689C12.8264 8.22689 13.2095 7.84515 13.2095 7.375C13.2095 6.90485 12.8264 6.52311 12.3545 6.52311C11.8826 6.52311 11.4995 6.90485 11.4995 7.375Z" fill="currentColor"/>
<path fill-rule="evenodd" clip-rule="evenodd" d="M5.88098 11.75C6.14042 12.476 6.8288 13 7.6458 13C8.46147 13 9.15105 12.476 9.41062 11.75H14.375C14.7202 11.75 15 11.4702 15 11.125C15 10.7798 14.7202 10.5 14.375 10.5H9.41062C9.15105 9.77405 8.46147 9.25 7.6458 9.25C6.8288 9.25 6.14042 9.77405 5.88098 10.5H5.625C5.27982 10.5 5 10.7798 5 11.125C5 11.4702 5.27982 11.75 5.625 11.75H5.88098ZM8.50053 11.125C8.50053 11.5952 8.1174 11.9769 7.64552 11.9769C7.17365 11.9769 6.79051 11.5952 6.79051 11.125C6.79051 10.6548 7.17365 10.2731 7.64552 10.2731C8.1174 10.2731 8.50053 10.6548 8.50053 11.125Z" fill="currentColor"/>
</svg>

<svg xmlns="http://www.w3.org/2000/svg" width="20" height="21" fill="none" viewBox="0 0 20 21"><path fill="currentColor" fill-rule="evenodd" d="M14.119 15.5a1.88 1.88 0 0 1-1.765 1.25 1.88 1.88 0 0 1-1.765-1.25H5.625a.625.625 0 1 1 0-1.25h4.964c.26-.726.95-1.25 1.765-1.25.817 0 1.506.524 1.765 1.25h.256a.625.625 0 1 1 0 1.25zm-2.62-.625a.854.854 0 0 0 1.71 0 .854.854 0 0 0-.854-.852.854.854 0 0 0-.856.852M14.119 8a1.88 1.88 0 0 1-1.765 1.25A1.88 1.88 0 0 1 10.59 8H5.625a.625.625 0 1 1 0-1.25h4.964c.26-.726.95-1.25 1.765-1.25.817 0 1.506.524 1.765 1.25h.256a.625.625 0 1 1 0 1.25zm-2.62-.625a.854.854 0 0 0 1.71 0 .854.854 0 0 0-.854-.852.854.854 0 0 0-.856.852M5.881 11.75c.26.726.948 1.25 1.765 1.25.815 0 1.505-.524 1.765-1.25h4.964a.625.625 0 1 0 0-1.25H9.411a1.88 1.88 0 0 0-1.765-1.25c-.817 0-1.506.524-1.765 1.25h-.256a.625.625 0 1 0 0 1.25zm2.62-.625a.854.854 0 0 1-1.71 0 .854.854 0 0 1 1.71 0" clip-rule="evenodd"/></svg>
